!!!OTL: 532. Tyroler Heimweh.
!!!ARE: Europa, Mitteleuropa, Deutschland, Frankfurt a.M.
!!!SCT: B0532
!!!TXL: @@DE
!!!YEM: Copyright 1995, estate of Helmut Schaffrath.
**kern	**text
*ICvox	*
*Ivox	*
*clefG2	*
*M4/4	*
*met(c)	*
*k[f#c#]	*
*D:	*
!LO:TX:a:t=Bewegt.	!
{8dL	O
8f#J	.
=1	=1
4a	könnt
8aL	ich
8f#J	.
4a	in
8bL	mein
8f#J	.
=2	=2
4.a	Hei-
8g	-math-
4g}	-land,
{8eL	ʒu-
8gJ	.
=3	=3
4.cc#	-rück
8b	ins
4a	Land
4g	Ty-
=4	=4
2f#	-rol,
4r}	.
{8aL	ins
8ddJ	.
=5	=5
4ff#	Land,
4ff#	wo
4.gg	mei-
8ff#	-ne
=6	=6
4.ff#	Wie-
8ee	-ge
4ee}	ſtand,
{4b	da
=7	=7
4a	wär
8g#L	mir
8aJ	.
4.b	wie-
8g	-der
=8	=8
2f#	wohl;
4r}	.
{(8aL	ins
8ddJ)	.
=9	=9
4gg	Land,
4ff#	wo
4ee	mei-
4dd	-ne
=10	=10
4.cc#	Wie-
8b	-ge
(8eeL	ſtand,
8dd)}J	.
{(8cc#L	da
8bJ)	.
=11	=11
4a	wär'
4dd	mir
4.cc#	wie-
8ee	-der
=12	=12
2dd	wohl!
4r}	.
==	==
!!!AGN: Wander -, Heimat - Lied
!!!GTL: Wanderlieder
!!!ONB: ESAC (Essen Associative Code) Database: BOEHME
!!!AMT: simple quadruple
!!!AIN: vox
!!!EED: Helmut Schaffrath
!!!EEV: 1.0
!!Neueres Lied, nach 1860 bekannt.
!!@@COMMENT:"Jn der Umgegend von Frankfurt a. M. gehoert."
!!@@END:
!!!URL-scan: https://archive.org/details/BoehmeVtLieder1895/page/n423/mode/2up
!!!ENC: Anna Maria Matuszewska
!!!EEV: 2024/11/07
*-	*-
